static/img/kroki/b23f0ff7987c8a1fc3453adad115d566.svg

<?xml version="1.0" encoding="us-ascii" standalone="no"?><svg xmlns="http://www.w3.org/2000/svg" xmlns:xlink="http://www.w3.org/1999/xlink" contentStyleType="text/css" height="352px" preserveAspectRatio="none" style="width:1095px;height:352px;" version="1.1" viewBox="0 0 1095 352" width="1095px" zoomAndPan="magnify"><defs/><g><!--class aws_backup_protected_resource--><g id="elem_aws_backup_protected_resource"><rect codeLine="23" fill="#3D176E" height="39.7891" id="aws_backup_protected_resource" rx="2.5" ry="2.5" style="stroke:#000D19;stroke-width:0.5;" width="311" x="109" y="7"/><ellipse cx="124" cy="26.8945" fill="#ADD1B2" rx="11" ry="11" style="stroke:#181818;stroke-width:1.0;"/><path d="M126.9688,32.5352 Q126.3906,32.832 125.75,32.9727 Q125.1094,33.1289 124.4063,33.1289 Q121.9063,33.1289 120.5781,31.4883 Q119.2656,29.832 119.2656,26.707 Q119.2656,23.582 120.5781,21.9258 Q121.9063,20.2695 124.4063,20.2695 Q125.1094,20.2695 125.75,20.4258 Q126.4063,20.582 126.9688,20.8789 L126.9688,23.5977 Q126.3438,23.0195 125.75,22.7539 Q125.1563,22.4727 124.5313,22.4727 Q123.1875,22.4727 122.5,23.5508 Q121.8125,24.6133 121.8125,26.707 Q121.8125,28.8008 122.5,29.8789 Q123.1875,30.9414 124.5313,30.9414 Q125.1563,30.9414 125.75,30.6758 Q126.3438,30.3945 126.9688,29.8164 L126.9688,32.5352 Z " fill="#000000"/><text fill="#D9B8FF" font-family="Helvetica" font-size="17" lengthAdjust="spacing" textLength="269" x="143" y="32.7798">aws_backup_protected_resource</text></g><!--class aws_bedrock_agent_knowledge_base--><g id="elem_aws_bedrock_agent_knowledge_base"><rect codeLine="26" fill="#3D176E" height="39.7891" id="aws_bedrock_agent_knowledge_base" rx="2.5" ry="2.5" style="stroke:#000D19;stroke-width:0.5;" width="353" x="455" y="7"/><ellipse cx="470" cy="26.8945" fill="#ADD1B2" rx="11" ry="11" style="stroke:#181818;stroke-width:1.0;"/><path d="M472.9688,32.5352 Q472.3906,32.832 471.75,32.9727 Q471.1094,33.1289 470.4063,33.1289 Q467.9063,33.1289 466.5781,31.4883 Q465.2656,29.832 465.2656,26.707 Q465.2656,23.582 466.5781,21.9258 Q467.9063,20.2695 470.4063,20.2695 Q471.1094,20.2695 471.75,20.4258 Q472.4063,20.582 472.9688,20.8789 L472.9688,23.5977 Q472.3438,23.0195 471.75,22.7539 Q471.1563,22.4727 470.5313,22.4727 Q469.1875,22.4727 468.5,23.5508 Q467.8125,24.6133 467.8125,26.707 Q467.8125,28.8008 468.5,29.8789 Q469.1875,30.9414 470.5313,30.9414 Q471.1563,30.9414 471.75,30.6758 Q472.3438,30.3945 472.9688,29.8164 L472.9688,32.5352 Z " fill="#000000"/><text fill="#D9B8FF" font-family="Helvetica" font-size="17" lengthAdjust="spacing" textLength="311" x="489" y="32.7798">aws_bedrock_agent_knowledge_base</text></g><!--class aws_ec2_security_group--><g id="elem_aws_ec2_security_group"><rect codeLine="29" fill="#3D176E" height="39.7891" id="aws_ec2_security_group" rx="2.5" ry="2.5" style="stroke:#000D19;stroke-width:0.5;" width="245" x="843" y="7"/><ellipse cx="858" cy="26.8945" fill="#ADD1B2" rx="11" ry="11" style="stroke:#181818;stroke-width:1.0;"/><path d="M860.9688,32.5352 Q860.3906,32.832 859.75,32.9727 Q859.1094,33.1289 858.4063,33.1289 Q855.9063,33.1289 854.5781,31.4883 Q853.2656,29.832 853.2656,26.707 Q853.2656,23.582 854.5781,21.9258 Q855.9063,20.2695 858.4063,20.2695 Q859.1094,20.2695 859.75,20.4258 Q860.4063,20.582 860.9688,20.8789 L860.9688,23.5977 Q860.3438,23.0195 859.75,22.7539 Q859.1563,22.4727 858.5313,22.4727 Q857.1875,22.4727 856.5,23.5508 Q855.8125,24.6133 855.8125,26.707 Q855.8125,28.8008 856.5,29.8789 Q857.1875,30.9414 858.5313,30.9414 Q859.1563,30.9414 859.75,30.6758 Q860.3438,30.3945 860.9688,29.8164 L860.9688,32.5352 Z " fill="#000000"/><text fill="#D9B8FF" font-family="Helvetica" font-size="17" lengthAdjust="spacing" textLength="203" x="877" y="32.7798">aws_ec2_security_group</text></g><!--class aws_kinesis_stream--><g id="elem_aws_kinesis_stream"><rect codeLine="32" fill="#3D176E" height="39.7891" id="aws_kinesis_stream" rx="2.5" ry="2.5" style="stroke:#000D19;stroke-width:0.5;" width="209" x="7" y="206.58"/><ellipse cx="22" cy="226.4745" fill="#ADD1B2" rx="11" ry="11" style="stroke:#181818;stroke-width:1.0;"/><path d="M24.9688,232.1152 Q24.3906,232.412 23.75,232.5527 Q23.1094,232.7089 22.4063,232.7089 Q19.9063,232.7089 18.5781,231.0683 Q17.2656,229.412 17.2656,226.287 Q17.2656,223.162 18.5781,221.5058 Q19.9063,219.8495 22.4063,219.8495 Q23.1094,219.8495 23.75,220.0058 Q24.4063,220.162 24.9688,220.4589 L24.9688,223.1777 Q24.3438,222.5995 23.75,222.3339 Q23.1563,222.0527 22.5313,222.0527 Q21.1875,222.0527 20.5,223.1308 Q19.8125,224.1933 19.8125,226.287 Q19.8125,228.3808 20.5,229.4589 Q21.1875,230.5214 22.5313,230.5214 Q23.1563,230.5214 23.75,230.2558 Q24.3438,229.9745 24.9688,229.3964 L24.9688,232.1152 Z " fill="#000000"/><text fill="#D9B8FF" font-family="Helvetica" font-size="17" lengthAdjust="spacing" textLength="167" x="41" y="232.3598">aws_kinesis_stream</text></g><!--class aws_kms_key--><g id="elem_aws_kms_key"><rect codeLine="35" fill="#3D176E" height="39.7891" id="aws_kms_key" rx="2.5" ry="2.5" style="stroke:#000D19;stroke-width:0.5;" width="158" x="281.5" y="306.37"/><ellipse cx="296.5" cy="326.2645" fill="#ADD1B2" rx="11" ry="11" style="stroke:#181818;stroke-width:1.0;"/><path d="M299.4688,331.9052 Q298.8906,332.202 298.25,332.3427 Q297.6094,332.4989 296.9063,332.4989 Q294.4063,332.4989 293.0781,330.8583 Q291.7656,329.202 291.7656,326.077 Q291.7656,322.952 293.0781,321.2958 Q294.4063,319.6395 296.9063,319.6395 Q297.6094,319.6395 298.25,319.7958 Q298.9063,319.952 299.4688,320.2489 L299.4688,322.9677 Q298.8438,322.3895 298.25,322.1239 Q297.6563,321.8427 297.0313,321.8427 Q295.6875,321.8427 295,322.9208 Q294.3125,323.9833 294.3125,326.077 Q294.3125,328.1708 295,329.2489 Q295.6875,330.3114 297.0313,330.3114 Q297.6563,330.3114 298.25,330.0458 Q298.8438,329.7645 299.4688,329.1864 L299.4688,331.9052 Z " fill="#000000"/><text fill="#D9B8FF" font-family="Helvetica" font-size="17" lengthAdjust="spacing" textLength="116" x="315.5" y="332.1498">aws_kms_key</text></g><!--class aws_rds_cluster--><g id="elem_aws_rds_cluster"><rect codeLine="38" fill="#3D176E" height="39.7891" id="aws_rds_cluster" rx="2.5" ry="2.5" style="stroke:#000D19;stroke-width:0.5;" width="174" x="364.5" y="106.79"/><ellipse cx="379.5" cy="126.6845" fill="#ADD1B2" rx="11" ry="11" style="stroke:#181818;stroke-width:1.0;"/><path d="M382.4688,132.3252 Q381.8906,132.622 381.25,132.7627 Q380.6094,132.9189 379.9063,132.9189 Q377.4063,132.9189 376.0781,131.2783 Q374.7656,129.622 374.7656,126.497 Q374.7656,123.372 376.0781,121.7158 Q377.4063,120.0595 379.9063,120.0595 Q380.6094,120.0595 381.25,120.2158 Q381.9063,120.372 382.4688,120.6689 L382.4688,123.3877 Q381.8438,122.8095 381.25,122.5439 Q380.6563,122.2627 380.0313,122.2627 Q378.6875,122.2627 378,123.3408 Q377.3125,124.4033 377.3125,126.497 Q377.3125,128.5908 378,129.6689 Q378.6875,130.7314 380.0313,130.7314 Q380.6563,130.7314 381.25,130.4658 Q381.8438,130.1845 382.4688,129.6064 L382.4688,132.3252 Z " fill="#000000"/><text fill="#D9B8FF" font-family="Helvetica" font-size="17" lengthAdjust="spacing" textLength="132" x="398.5" y="132.5698">aws_rds_cluster</text></g><!--class aws_rds_cluster_snapshot--><g id="elem_aws_rds_cluster_snapshot"><rect codeLine="41" fill="#3D176E" height="39.7891" id="aws_rds_cluster_snapshot" rx="2.5" ry="2.5" style="stroke:#000D19;stroke-width:0.5;" width="258" x="322.5" y="206.58"/><ellipse cx="337.5" cy="226.4745" fill="#ADD1B2" rx="11" ry="11" style="stroke:#181818;stroke-width:1.0;"/><path d="M340.4688,232.1152 Q339.8906,232.412 339.25,232.5527 Q338.6094,232.7089 337.9063,232.7089 Q335.4063,232.7089 334.0781,231.0683 Q332.7656,229.412 332.7656,226.287 Q332.7656,223.162 334.0781,221.5058 Q335.4063,219.8495 337.9063,219.8495 Q338.6094,219.8495 339.25,220.0058 Q339.9063,220.162 340.4688,220.4589 L340.4688,223.1777 Q339.8438,222.5995 339.25,222.3339 Q338.6563,222.0527 338.0313,222.0527 Q336.6875,222.0527 336,223.1308 Q335.3125,224.1933 335.3125,226.287 Q335.3125,228.3808 336,229.4589 Q336.6875,230.5214 338.0313,230.5214 Q338.6563,230.5214 339.25,230.2558 Q339.8438,229.9745 340.4688,229.3964 L340.4688,232.1152 Z " fill="#000000"/><text fill="#D9B8FF" font-family="Helvetica" font-size="17" lengthAdjust="spacing" textLength="216" x="356.5" y="232.3598">aws_rds_cluster_snapshot</text></g><!--class aws_rds_instance--><g id="elem_aws_rds_instance"><rect codeLine="44" fill="#3D176E" height="39.7891" id="aws_rds_instance" rx="2.5" ry="2.5" style="stroke:#000D19;stroke-width:0.5;" width="188" x="615.5" y="206.58"/><ellipse cx="630.5" cy="226.4745" fill="#ADD1B2" rx="11" ry="11" style="stroke:#181818;stroke-width:1.0;"/><path d="M633.4688,232.1152 Q632.8906,232.412 632.25,232.5527 Q631.6094,232.7089 630.9063,232.7089 Q628.4063,232.7089 627.0781,231.0683 Q625.7656,229.412 625.7656,226.287 Q625.7656,223.162 627.0781,221.5058 Q628.4063,219.8495 630.9063,219.8495 Q631.6094,219.8495 632.25,220.0058 Q632.9063,220.162 633.4688,220.4589 L633.4688,223.1777 Q632.8438,222.5995 632.25,222.3339 Q631.6563,222.0527 631.0313,222.0527 Q629.6875,222.0527 629,223.1308 Q628.3125,224.1933 628.3125,226.287 Q628.3125,228.3808 629,229.4589 Q629.6875,230.5214 631.0313,230.5214 Q631.6563,230.5214 632.25,230.2558 Q632.8438,229.9745 633.4688,229.3964 L633.4688,232.1152 Z " fill="#000000"/><text fill="#D9B8FF" font-family="Helvetica" font-size="17" lengthAdjust="spacing" textLength="146" x="649.5" y="232.3598">aws_rds_instance</text></g><!--link aws_backup_protected_resource to aws_rds_cluster--><g id="link_aws_backup_protected_resource_aws_rds_cluster"><path codeLine="47" d="M301.45,47.22 C334.23,64.36 376.553,86.4998 409.313,103.6298 " fill="none" id="aws_backup_protected_resource-to-aws_rds_cluster" style="stroke:#1A83AF;stroke-width:2.0;"/><polygon fill="#1A83AF" points="414.63,106.41,408.508,98.695,410.1992,104.0931,404.801,105.7843,414.63,106.41" style="stroke:#1A83AF;stroke-width:2.0;"/></g><!--link aws_backup_protected_resource to aws_rds_instance--><g id="link_aws_backup_protected_resource_aws_rds_instance"><path codeLine="48" d="M376.41,47.27 C432.4,59.62 500.09,78.71 556.5,106.79 C609.77,133.31 658.1798,175.7472 685.6598,201.9772 " fill="none" id="aws_backup_protected_resource-to-aws_rds_instance" style="stroke:#1A83AF;stroke-width:2.0;"/><polygon fill="#1A83AF" points="690,206.12,686.2515,197.0124,686.3832,202.6677,680.7278,202.7993,690,206.12" style="stroke:#1A83AF;stroke-width:2.0;"/></g><!--link aws_bedrock_agent_knowledge_base to aws_rds_cluster--><g id="link_aws_bedrock_agent_knowledge_base_aws_rds_cluster"><path codeLine="49" d="M595.94,47.22 C564.38,64.36 523.7922,86.4157 492.2622,103.5457 " fill="none" id="aws_bedrock_agent_knowledge_base-to-aws_rds_cluster" style="stroke:#1A83AF;stroke-width:2.0;"/><polygon fill="#1A83AF" points="486.99,106.41,496.8078,105.6283,491.3835,104.0231,492.9887,98.5987,486.99,106.41" style="stroke:#1A83AF;stroke-width:2.0;"/></g><!--link aws_bedrock_agent_knowledge_base to aws_rds_instance--><g id="link_aws_bedrock_agent_knowledge_base_aws_rds_instance"><path codeLine="50" d="M639.12,47.2 C654.03,84.97 684.7061,162.6794 699.6461,200.5094 " fill="none" id="aws_bedrock_agent_knowledge_base-to-aws_rds_instance" style="stroke:#1A83AF;stroke-width:2.0;"/><polygon fill="#1A83AF" points="701.85,206.09,702.2645,196.2499,700.0134,201.4395,694.8238,199.1884,701.85,206.09" style="stroke:#1A83AF;stroke-width:2.0;"/></g><!--link aws_ec2_security_group to aws_rds_cluster--><g id="link_aws_ec2_security_group_aws_rds_cluster"><path codeLine="51" d="M863.64,47.28 C768.67,65.35 634.4243,90.8888 544.5243,107.9888 " fill="none" id="aws_ec2_security_group-to-aws_rds_cluster" style="stroke:#1A83AF;stroke-width:2.0;"/><polygon fill="#1A83AF" points="538.63,109.11,548.2189,111.3578,543.5419,108.1757,546.724,103.4987,538.63,109.11" style="stroke:#1A83AF;stroke-width:2.0;"/></g><!--link aws_ec2_security_group to aws_rds_instance--><g id="link_aws_ec2_security_group_aws_rds_instance"><path codeLine="52" d="M940.49,47.2 C891.55,84.97 788.3904,164.5948 739.3604,202.4248 " fill="none" id="aws_ec2_security_group-to-aws_rds_instance" style="stroke:#1A83AF;stroke-width:2.0;"/><polygon fill="#1A83AF" points="734.61,206.09,744.179,203.7591,738.5686,203.0356,739.2921,197.4252,734.61,206.09" style="stroke:#1A83AF;stroke-width:2.0;"/></g><!--link aws_kinesis_stream to aws_kms_key--><g id="link_aws_kinesis_stream_aws_kms_key"><path codeLine="53" d="M160.69,246.8 C204.35,263.94 262.2056,286.6557 305.8256,303.7957 " fill="none" id="aws_kinesis_stream-to-aws_kms_key" style="stroke:#1A83AF;stroke-width:2.0;"/><polygon fill="#1A83AF" points="311.41,305.99,304.4963,298.9756,306.7564,304.1614,301.5706,306.4214,311.41,305.99" style="stroke:#1A83AF;stroke-width:2.0;"/></g><!--link aws_rds_cluster to aws_kinesis_stream--><g id="link_aws_rds_cluster_aws_kinesis_stream"><path codeLine="54" d="M384.33,147.01 C324.82,164.12 244.1462,187.3216 184.5862,204.4516 " fill="none" id="aws_rds_cluster-to-aws_kinesis_stream" style="stroke:#1A83AF;stroke-width:2.0;"/><polygon fill="#1A83AF" points="178.82,206.11,188.575,207.4665,183.6252,204.728,186.3638,199.7782,178.82,206.11" style="stroke:#1A83AF;stroke-width:2.0;"/></g><!--link aws_rds_cluster to aws_kms_key--><g id="link_aws_rds_cluster_aws_kms_key"><path codeLine="55" d="M383.24,147.07 C353.93,159.15 322.54,178 305.5,206.58 C285.49,240.13 313.0505,277.8362 336.0105,301.8162 " fill="none" id="aws_rds_cluster-to-aws_kms_key" style="stroke:#1A83AF;stroke-width:2.0;"/><polygon fill="#1A83AF" points="340.16,306.15,336.825,296.883,336.7021,302.5385,331.0466,302.4156,340.16,306.15" style="stroke:#1A83AF;stroke-width:2.0;"/></g><!--link aws_rds_cluster to aws_rds_cluster_snapshot--><g id="link_aws_rds_cluster_aws_rds_cluster_snapshot"><path codeLine="56" d="M451.5,147.01 C451.5,164.15 451.5,183.06 451.5,200.2 " fill="none" id="aws_rds_cluster-to-aws_rds_cluster_snapshot" style="stroke:#1A83AF;stroke-width:2.0;"/><polygon fill="#1A83AF" points="451.5,206.2,455.5,197.2,451.5,201.2,447.5,197.2,451.5,206.2" style="stroke:#1A83AF;stroke-width:2.0;"/></g><!--link aws_rds_cluster to aws_rds_instance--><g id="link_aws_rds_cluster_aws_rds_instance"><path codeLine="57" d="M502.47,147.01 C547.7,164.15 607.8198,186.9326 653.0198,204.0726 " fill="none" id="aws_rds_cluster-to-aws_rds_instance" style="stroke:#1A83AF;stroke-width:2.0;"/><polygon fill="#1A83AF" points="658.63,206.2,651.633,199.2688,653.9548,204.4272,648.7965,206.749,658.63,206.2" style="stroke:#1A83AF;stroke-width:2.0;"/></g><!--link aws_rds_cluster_snapshot to aws_kms_key--><g id="link_aws_rds_cluster_snapshot_aws_kms_key"><path codeLine="58" d="M433.52,246.8 C417.57,263.94 398.466,284.4563 382.526,301.5963 " fill="none" id="aws_rds_cluster_snapshot-to-aws_kms_key" style="stroke:#1A83AF;stroke-width:2.0;"/><polygon fill="#1A83AF" points="378.44,305.99,387.4982,302.1235,381.845,302.3286,381.64,296.6755,378.44,305.99" style="stroke:#1A83AF;stroke-width:2.0;"/></g><!--link aws_rds_instance to aws_kms_key--><g id="link_aws_rds_instance_aws_kms_key"><path codeLine="59" d="M640.55,246.8 C579.46,263.91 496.5175,287.151 435.3875,304.281 " fill="none" id="aws_rds_instance-to-aws_kms_key" style="stroke:#1A83AF;stroke-width:2.0;"/><polygon fill="#1A83AF" points="429.61,305.9,439.3555,307.3232,434.4245,304.5509,437.1969,299.6199,429.61,305.9" style="stroke:#1A83AF;stroke-width:2.0;"/></g><!--SRC=[dP9DJy9048Rl_HMRS2RX8mfSJ924w8KOyMRCPjcTmgRjRZEpbQ3nlziAc7PRMlImbvrdvdtdOwSLC4XITs0991j02YZI9XKe4ZP7jFk5ZIsoNXYAS3pnWqjhN2Um4Wcm1uZVmMafVE9bfsLaW8YDIg5x8QCjsioeOtc7mb0U0kDAr28MH7FdK6yo1oKpQhQPXg5F-aLxOpMSt48DiwW0JyXWC533cOzqIhNs_KkizGUmONbeA-kWPhCcyKErkYo8aibQe-VuHOzFGYbjjkoczFTyz8G6iFA_tWbbzmKTYfZACkG0mRf32ejQLp2Rgd3I23zUWWDPZ8w9FV5DZcGfJp7lH3fG785iXXBOPn1ybK5GQ6N4nJO_7XuPkuz1RI4lG3KMv8WJo0orE_32GEeJkLiWJPmSGkxPZoRvWuF_ZOguZBEYmPOG9oDIsbdNn6X3JfXpT-q3wB_sXlFfUBvywz_v8lz9FMi7dUFiLlvpTaMyOJ-TajVcL8IyDTSIJeiE_EtMmKgXA_Xh2pSTpdLPbKORxw_JrUyrNYI_0G00]--></g></svg>

<svg xmlns="http://www.w3.org/2000/svg" width="1095" height="352" viewBox="0 0 1095 352"><rect width="311" height="39.789" x="109" y="7" fill="#3D176E" rx="2.5" ry="2.5" style="stroke:#000d19;stroke-width:.5"/><circle cx="124" cy="26.895" r="11" fill="#ADD1B2" style="stroke:#181818;stroke-width:1"/><path d="M126.969 32.535q-.578.297-1.219.438-.64.156-1.344.156-2.5 0-3.828-1.64-1.312-1.657-1.312-4.782t1.312-4.781q1.328-1.656 3.828-1.656.703 0 1.344.156.656.156 1.219.453v2.719q-.625-.578-1.219-.844-.594-.281-1.219-.281-1.344 0-2.031 1.078-.687 1.062-.687 3.156t.687 3.172q.688 1.062 2.031 1.062.625 0 1.219-.265.594-.281 1.219-.86z"/><text x="143" y="32.78" fill="#D9B8FF" font-family="Helvetica" font-size="17" textLength="269">aws_backup_protected_resource</text><rect width="353" height="39.789" x="455" y="7" fill="#3D176E" rx="2.5" ry="2.5" style="stroke:#000d19;stroke-width:.5"/><circle cx="470" cy="26.895" r="11" fill="#ADD1B2" style="stroke:#181818;stroke-width:1"/><path d="M472.969 32.535q-.578.297-1.219.438-.64.156-1.344.156-2.5 0-3.828-1.64-1.312-1.657-1.312-4.782t1.312-4.781q1.328-1.656 3.828-1.656.703 0 1.344.156.656.156 1.219.453v2.719q-.625-.578-1.219-.844-.594-.281-1.219-.281-1.344 0-2.031 1.078-.687 1.062-.687 3.156t.687 3.172q.688 1.062 2.031 1.062.625 0 1.219-.265.594-.281 1.219-.86z"/><text x="489" y="32.78" fill="#D9B8FF" font-family="Helvetica" font-size="17" textLength="311">aws_bedrock_agent_knowledge_base</text><rect width="245" height="39.789" x="843" y="7" fill="#3D176E" rx="2.5" ry="2.5" style="stroke:#000d19;stroke-width:.5"/><circle cx="858" cy="26.895" r="11" fill="#ADD1B2" style="stroke:#181818;stroke-width:1"/><path d="M860.969 32.535q-.578.297-1.219.438-.64.156-1.344.156-2.5 0-3.828-1.64-1.312-1.657-1.312-4.782t1.312-4.781q1.328-1.656 3.828-1.656.703 0 1.344.156.656.156 1.219.453v2.719q-.625-.578-1.219-.844-.594-.281-1.219-.281-1.343 0-2.031 1.078-.687 1.062-.687 3.156t.687 3.172q.688 1.062 2.031 1.062.625 0 1.219-.265.594-.281 1.219-.86z"/><text x="877" y="32.78" fill="#D9B8FF" font-family="Helvetica" font-size="17" textLength="203">aws_ec2_security_group</text><rect width="209" height="39.789" x="7" y="206.58" fill="#3D176E" rx="2.5" ry="2.5" style="stroke:#000d19;stroke-width:.5"/><circle cx="22" cy="226.475" r="11" fill="#ADD1B2" style="stroke:#181818;stroke-width:1"/><path d="M24.969 232.115q-.578.297-1.219.438-.64.156-1.344.156-2.5 0-3.828-1.64-1.312-1.657-1.312-4.782t1.312-4.781q1.328-1.656 3.828-1.656.703 0 1.344.156.656.156 1.219.453v2.719q-.625-.578-1.219-.844-.594-.281-1.219-.281-1.343 0-2.031 1.078-.687 1.062-.687 3.156t.687 3.172q.688 1.062 2.031 1.062.625 0 1.219-.265.594-.281 1.219-.86z"/><text x="41" y="232.36" fill="#D9B8FF" font-family="Helvetica" font-size="17" textLength="167">aws_kinesis_stream</text><rect width="158" height="39.789" x="281.5" y="306.37" fill="#3D176E" rx="2.5" ry="2.5" style="stroke:#000d19;stroke-width:.5"/><circle cx="296.5" cy="326.264" r="11" fill="#ADD1B2" style="stroke:#181818;stroke-width:1"/><path d="M299.469 331.905q-.578.297-1.219.438-.64.156-1.344.156-2.5 0-3.828-1.64-1.312-1.657-1.312-4.782t1.312-4.781q1.328-1.656 3.828-1.656.703 0 1.344.156.656.156 1.219.453v2.719q-.625-.579-1.219-.844-.594-.281-1.219-.281-1.344 0-2.031 1.078-.687 1.062-.687 3.156t.687 3.172q.688 1.062 2.031 1.062.625 0 1.219-.265.594-.281 1.219-.86z"/><text x="315.5" y="332.15" fill="#D9B8FF" font-family="Helvetica" font-size="17" textLength="116">aws_kms_key</text><rect width="174" height="39.789" x="364.5" y="106.79" fill="#3D176E" rx="2.5" ry="2.5" style="stroke:#000d19;stroke-width:.5"/><circle cx="379.5" cy="126.684" r="11" fill="#ADD1B2" style="stroke:#181818;stroke-width:1"/><path d="M382.469 132.325q-.578.297-1.219.438-.64.156-1.344.156-2.5 0-3.828-1.64-1.312-1.657-1.312-4.782t1.312-4.781q1.328-1.656 3.828-1.656.703 0 1.344.156.656.156 1.219.453v2.719q-.625-.579-1.219-.844-.594-.281-1.219-.281-1.344 0-2.031 1.078-.687 1.062-.687 3.156t.687 3.172q.688 1.062 2.031 1.062.625 0 1.219-.265.594-.281 1.219-.86z"/><text x="398.5" y="132.57" fill="#D9B8FF" font-family="Helvetica" font-size="17" textLength="132">aws_rds_cluster</text><rect width="258" height="39.789" x="322.5" y="206.58" fill="#3D176E" rx="2.5" ry="2.5" style="stroke:#000d19;stroke-width:.5"/><circle cx="337.5" cy="226.475" r="11" fill="#ADD1B2" style="stroke:#181818;stroke-width:1"/><path d="M340.469 232.115q-.578.297-1.219.438-.64.156-1.344.156-2.5 0-3.828-1.64-1.312-1.657-1.312-4.782t1.312-4.781q1.328-1.656 3.828-1.656.703 0 1.344.156.656.156 1.219.453v2.719q-.625-.578-1.219-.844-.594-.281-1.219-.281-1.344 0-2.031 1.078-.687 1.062-.687 3.156t.687 3.172q.688 1.062 2.031 1.062.625 0 1.219-.265.594-.281 1.219-.86z"/><text x="356.5" y="232.36" fill="#D9B8FF" font-family="Helvetica" font-size="17" textLength="216">aws_rds_cluster_snapshot</text><rect width="188" height="39.789" x="615.5" y="206.58" fill="#3D176E" rx="2.5" ry="2.5" style="stroke:#000d19;stroke-width:.5"/><circle cx="630.5" cy="226.475" r="11" fill="#ADD1B2" style="stroke:#181818;stroke-width:1"/><path d="M633.469 232.115q-.578.297-1.219.438-.64.156-1.344.156-2.5 0-3.828-1.64-1.312-1.657-1.312-4.782t1.312-4.781q1.328-1.656 3.828-1.656.703 0 1.344.156.656.156 1.219.453v2.719q-.625-.578-1.219-.844-.594-.281-1.219-.281-1.343 0-2.031 1.078-.687 1.062-.687 3.156t.687 3.172q.688 1.062 2.031 1.062.625 0 1.219-.265.594-.281 1.219-.86z"/><text x="649.5" y="232.36" fill="#D9B8FF" font-family="Helvetica" font-size="17" textLength="146">aws_rds_instance</text><path fill="none" d="M301.45 47.22c32.78 17.14 75.103 39.28 107.863 56.41" style="stroke:#1a83af;stroke-width:2"/><path fill="#1A83AF" d="m414.63 106.41-6.122-7.715 1.691 5.398-5.398 1.691z" style="stroke:#1a83af;stroke-width:2"/><path fill="none" d="M376.41 47.27c55.99 12.35 123.68 31.44 180.09 59.52 53.27 26.52 101.68 68.957 129.16 95.187" style="stroke:#1a83af;stroke-width:2"/><path fill="#1A83AF" d="m690 206.12-3.749-9.108.132 5.656-5.655.131z" style="stroke:#1a83af;stroke-width:2"/><path fill="none" d="M595.94 47.22c-31.56 17.14-72.148 39.196-103.678 56.326" style="stroke:#1a83af;stroke-width:2"/><path fill="#1A83AF" d="m486.99 106.41 9.818-.782-5.424-1.605 1.605-5.424z" style="stroke:#1a83af;stroke-width:2"/><path fill="none" d="M639.12 47.2c14.91 37.77 45.586 115.48 60.526 153.31" style="stroke:#1a83af;stroke-width:2"/><path fill="#1A83AF" d="m701.85 206.09.414-9.84-2.25 5.19-5.19-2.252z" style="stroke:#1a83af;stroke-width:2"/><path fill="none" d="M863.64 47.28c-94.97 18.07-229.216 43.609-319.116 60.709" style="stroke:#1a83af;stroke-width:2"/><path fill="#1A83AF" d="m538.63 109.11 9.589 2.248-4.677-3.182 3.182-4.677z" style="stroke:#1a83af;stroke-width:2"/><path fill="none" d="M940.49 47.2c-48.94 37.77-152.1 117.395-201.13 155.225" style="stroke:#1a83af;stroke-width:2"/><path fill="#1A83AF" d="m734.61 206.09 9.569-2.33-5.61-.724.723-5.61z" style="stroke:#1a83af;stroke-width:2"/><path fill="none" d="M160.69 246.8a554284 554284 0 0 1 145.136 56.996" style="stroke:#1a83af;stroke-width:2"/><path fill="#1A83AF" d="m311.41 305.99-6.914-7.014 2.26 5.185-5.185 2.26z" style="stroke:#1a83af;stroke-width:2"/><path fill="none" d="M384.33 147.01c-59.51 17.11-140.184 40.312-199.744 57.442" style="stroke:#1a83af;stroke-width:2"/><path fill="#1A83AF" d="m178.82 206.11 9.755 1.356-4.95-2.738 2.739-4.95z" style="stroke:#1a83af;stroke-width:2"/><path fill="none" d="M383.24 147.07c-29.31 12.08-60.7 30.93-77.74 59.51-20.01 33.55 7.55 71.256 30.51 95.236" style="stroke:#1a83af;stroke-width:2"/><path fill="#1A83AF" d="m340.16 306.15-3.335-9.267-.123 5.656-5.655-.123z" style="stroke:#1a83af;stroke-width:2"/><path fill="none" d="M451.5 147.01v53.19" style="stroke:#1a83af;stroke-width:2"/><path fill="#1A83AF" d="m451.5 206.2 4-9-4 4-4-4z" style="stroke:#1a83af;stroke-width:2"/><path fill="none" d="M502.47 147.01a812631 812631 0 0 1 150.55 57.063" style="stroke:#1a83af;stroke-width:2"/><path fill="#1A83AF" d="m658.63 206.2-6.997-6.931 2.322 5.158-5.159 2.322z" style="stroke:#1a83af;stroke-width:2"/><path fill="none" d="M433.52 246.8c-15.95 17.14-35.054 37.656-50.994 54.796" style="stroke:#1a83af;stroke-width:2"/><path fill="#1A83AF" d="m378.44 305.99 9.058-3.867-5.653.206-.205-5.654z" style="stroke:#1a83af;stroke-width:2"/><path fill="none" d="M640.55 246.8c-61.09 17.11-144.032 40.351-205.162 57.481" style="stroke:#1a83af;stroke-width:2"/><path fill="#1A83AF" d="m429.61 305.9 9.745 1.423-4.93-2.772 2.772-4.931z" style="stroke:#1a83af;stroke-width:2"/></svg>
